assets/logos/icons/key.svg

<svg height="24" viewBox="0 0 24 24" width="24" xmlns="http://www.w3.org/2000/svg"><path d="m19.2365638 18.4900171c-.0283528.1065675-.1134113.191626-.2209565.2209565l-2.8763455.7704148c-.1085228.0273751-.2219342-.0019554-.3011265-.0811477l-2.1059308-2.1059308c-.0782146-.0782147-.1085228-.1935813-.08017-.3001489l.7977899-2.9809576c.0293305-.1065675.1134113-.1906483.2209565-.2199788l2.8763455-.7713925c.0273751-.0068438.0537726-.0107545.0801701-.0107545.0821254 0 .1622955.0332412.2209565.0919023l2.1059307 2.1069084c.0782147.0782147.1095006.1926037.0801701.3001489zm-.0058661-6.769482c-.5709672-.5729227-1.4127529-.7968122-2.1890338-.5866102l-2.8753678.7704147c-.0175983.0048884-.0332412.015643-.0508395.0215091l-9.42682639-9.4258487-1.38244477 1.38244477 1.39906539 1.39808771-2.70525083 2.70525083 1.38244477 1.38244477 1.84488916-1.84586685 1.33649364 1.33649364-1.76809302 1.83091073 1.38342246 1.3824448 2.62649931-2.68931706 3.86478368 3.86380606c-.0361743.0870138-.0840808.1681616-.1085229.2600638l-.7987675 2.9809577c-.2082467.7792139.0156429 1.6180665.5866102 2.1890338l2.104953 2.104953c.4301808.4301809 1.0128803.664825 1.6063344.664825.194559 0 .3910734-.0254198.5846548-.0772371l2.8763455-.7704147c.7801916-.2092243 1.394177-.8232097 1.6034013-1.6024236l.7977899-2.97998c.2092243-.7811693-.0166206-1.6209996-.5875879-2.1909892z" fill="#492f5c" fill-rule="evenodd"/></svg>

<svg xmlns="http://www.w3.org/2000/svg" width="24" height="24" viewBox="0 0 24 24">
  <path fill="#492F5C" fill-rule="evenodd" d="M19.2365638,18.4900171 C19.208211,18.5965846 19.1231525,18.6816431 19.0156073,18.7109736 L16.1392618,19.4813884 C16.030739,19.5087635 15.9173276,19.479433 15.8381353,19.4002407 L13.7322045,17.2943099 C13.6539899,17.2160952 13.6236817,17.1007286 13.6520345,16.994161 L14.4498244,14.0132034 C14.4791549,13.9066359 14.5632357,13.8225551 14.6707809,13.7932246 L17.5471264,13.0218321 C17.5745015,13.0149883 17.600899,13.0110776 17.6272965,13.0110776 C17.7094219,13.0110776 17.789592,13.0443188 17.848253,13.1029799 L19.9541837,15.2098883 C20.0323984,15.288103 20.0636843,15.402492 20.0343538,15.5100372 L19.2365638,18.4900171 Z M19.2306977,11.7205351 C18.6597305,11.1476124 17.8179448,10.9237229 17.0416639,11.1339249 L14.1662961,11.9043396 C14.1486978,11.909228 14.1330549,11.9199826 14.1154566,11.9258487 L4.68863021,2.5 L3.30618544,3.88244477 L4.70525083,5.28053248 L2,7.98578331 L3.38244477,9.36822808 L5.22733393,7.52236123 L6.56382757,8.85885487 L4.79573455,10.6897656 L6.17915701,12.0722104 L8.80565632,9.38289334 L12.67044,13.2466994 C12.6342657,13.3337132 12.5863592,13.414861 12.5619171,13.5067632 L11.7631496,16.4877209 C11.5549029,17.2669348 11.7787925,18.1057874 12.3497598,18.6767547 L14.4547128,20.7817077 C14.8848936,21.2118886 15.4675931,21.4465327 16.0610472,21.4465327 C16.2556062,21.4465327 16.4521206,21.4211129 16.645702,21.3692956 L19.5220475,20.5988809 C20.3022391,20.3896566 20.9162245,19.7756712 21.1254488,18.9964573 L21.9232387,16.0164773 C22.132463,15.235308 21.9066181,14.3954777 21.3356508,13.8254881 L19.2306977,11.7205351 Z"/>
</svg>
